X:1
T:Perfidissimo volto
T:Perfidissimo volto
T:Giulio Caccini
T:Source : Le nuove Musische di G.Caccini detto Romano---Firenze---G.Marascotti---1601. Editor : André Vierendeels (09/07/15).
T:Notes : Original clefs : C4, F4 Figures in BC are notated in original print Lyrics by G.B.Guarini    
C:Giulio Caccini
%%score 1 2
L:1/8
Q:1/4=80
M:2/2
K:F
V:1 treble-8 nm="Tenor" snm="T"
V:2 bass nm="BC" snm="BC"
V:1
 G2 G2 G2 GG | G6 ^F/G/A | ^F8 | A3 A A2 AA | A3 A B3 B | c8 | d8 | z4 c4 | c2 G2 B2 B2 | A8 | %10
w: Per- fi- dis- si- mo|vol- * * *|to,|ben l'u- sa- ta bel-|lez- za'in te si|ve-|de|ma|non l'u- sa- ta|fe-|
 G8- | G8 | ^F4 FFFF | ^F4 A2 FF | G4 G4 | c2 cc c2 d2 | B2 A2 BA>Bc | A4 z2 ^F2 | G3 G G2 A2 | %19
w: de.|_|Gia mi pa- re- vi|dir: Quest' a- mo-|ro- se|lu- ci che dol- ce-|men- * * * * *|te ri-|vol- go'a te, si|
 G4 A4 | G8- | G4 F4 | E8 | D8 | D4 DDDD | D4 D2 GG | G6 cc | c4 d4 | c2 B/c/d/B/ A>B G>A | %29
w: bel- l'e|si|_ pie-|to-|se|pri- ma ve- drai tu|spen- te, che sia|spen- to'il de-|si- o|ch'à te _ _ _ le _ _ _|
 A>c A>B c4 | B8 | G8 | z4 c2 c2 | c6 cc | c8 | c8 | z4 A4 | GF>GA B/A/A/B/ G2 | A4 A3 F | %39
w: gi- * * * *|ra.|Ahi,|ahi, che|spen- to'e'l de-|si-|o,|ma|non _ _ _ è _ _ _ _|_ spen- to|
 G4 z2 ^F2 | ^F4 GF>GA | ^F4 F2 D2 | E3 E E2 F/E/F/G/ | E8 | D8 | z4 d4- | d4 G>GGG | G2 E2 c4- | %48
w: quel per|cui so- * * *|spi- ra l'ab-|ban- do- na- to _ _ _|co-|re!|O|_ vol- to trop- po|va- go'e trop-|
 c3 =B B4 | A2 E2 A2 E2 | ^F2 G2 A2 AA | d2 A2 =B2 c2 | d8 | c2 E2 G2 B2 | A4 A2 ^F2 | %55
w: * po ri-|o, per- che si-|per- di'a- mo- re non|per- di'an- cor va-|ghez-|za o non hai|pa- ri, o|
 G^F>GA B/A/A B<G | A4 G2 GG | G4 G>AB<A | A8 | G4 d4- | d4 G>GGG | G2 E2 c4- | c3 =B B4 | %63
w: non _ _ _ hai _ _ _ _|pa- ri la bel-|ta fer- * * *|mez-|za? O|_ vol- to trop- po|va- go'e trop-|* po ri-|
 A2 E2 A2 E2 | ^F2 G2 A2 AA | d2 A2 =B2 c2 | d8 | c4 z2 E2 | G4 B4 | A4 A2 ^F2 | %70
w: o, per- che si|per- de'a- mo- re non|per- di'an- cor va-|ghez-|za o|non hai|pa- ri, o|
 G>A B/c/B/c/ d2 B/A/B/G/ | A4 G2 GG | G4 A4 | A^F>GA B<A B<G | A8 | G8 |] %76
w: non _ _ _ _ _ _ hai _ _ _|pa- ri'a la bel-|tà fer-|mez- * * * * * * *||za?|
V:2
 G,,8 | G,,8 | D,,8 | D,8 |"^7     6" D,4 G,2 G,2 |"^11      10" F,4 F,4 | B,,8 | z4 F,4 | %8
 C,4 G,,4 |"^11""^#10" D,4 D,,4 | G,,8- | G,,8 | D,8 | D,,4 D,4 |"^6" =B,,4 C,4 | %15
"^-natural" F,,4 F,2 D,2 | G,4 G,,4 |"^11""^#10" D,4 D,4 |"^6" =B,,4 C,2 F,,2 | %19
"^11""^#10" C,2 C,2 F,4 |"^6" C,4 =B,,4 |"^#10""^11" A,,4 A,,4 |"^11""^#10" A,,4 A,,4 | D,,8 | %24
"^-natural" G,,8 |"^-natural" G,,4 G,,4 | C,4 C,4 | F,4 B,,4 |"^6" A,,4 B,,4 | %29
"^11" F,,4 F,,2 F,,2 |"^#10" B,,8 | _E,6 D,2 |"^-natural" C,4 C,4 |"^6" F,,4 A,,4 | %34
"^11""^#10" C,4 C,4 | F,,8 | z4 F,,4 | C,4 G,,4 |"^11""^#10" D,4 D,,2 D,,2 | G,,4 D,4 | %40
"^b" D,4 G,,4 | D,4 D,4 |"^11" A,,4 A,,2 A,,2 |"^11""^#10" A,,4 A,,4 | D,8 | D,,4 D,4 | G,,4 G,,4 | %47
 C,4 C,2 =B,,A,, |"^#10""^11""^11""^#10" E,2 E,2 E,,2 E,,2 | A,,6 A,,2 |"^-natural" D,2 G,,2 D,4- | %51
"^6" D,2 D,2 G,2 E,2 |"^11""^#10" G,4 G,,4 | C,6 G,,2 | D,4 D,4 | C,4 G,,4 |"^6" D,2 C,2 =B,,4 | %57
"^7""^#6" C,2 D,2 E,2 E,2 |"^11""^#10" D,4 D,4 | G,,8 |"^6" D,4 =B,,4 | C,6 =B,,A,, | %62
"^#10""^11""^11""^#10" E,2 E,2 E,2 E,2 | A,,6 A,,2 | D,2 G,,2 D,4- |"^6" D,2 D,2 G,2 E,2 | %66
"^11""^#10" G,4 G,,4 | C,4 C,4 | C,2 B,,A,, G,,4 | D,4 D,4 | C,4 G,,4 |"^6" D,2 C,2 =B,,4 | %72
"^#" C,2 B,,2 A,,4 | D,4 G,,4 |"^11""^#10""^14" D,4 D,,2 D,,2 | G,,8 |] %76

